apps/assets/tokens/CFT/overview/icons/price.svg

<svg viewBox="0 0 152 181" xmlns="http://www.w3.org/2000/svg" xml:space="preserve" style="fill-rule:evenodd;clip-rule:evenodd;stroke-linecap:round;stroke-linejoin:round;stroke-miterlimit:1.5">
  <ellipse cx="75.78" cy="97.081" rx="75.78" ry="83.091" style="fill:url(#_craftRadial81)"/>
  <g id="lines1">
    <path d="M15.707 84.014v8.478M35.707 28.486v29.291M55.707 14v15.619M75.707 34v15.619M95.707 34v19.643M115.707 27.229v24.478M135.707 36.156v10.686" style="fill:none;stroke:#70D1C8;stroke-width:8px"/>
  </g>
  <g id="lines2">
    <path d="M25.707 55.625v31.094M5.707 91.014v8.478M45.707 4v34.369M65.707 24v15.619M85.707 12.531v61.311M105.707 41v10.707M125.707 46.156V69.52M145.707 26.156v10.686" style="fill:none;stroke:#70D1C8;stroke-width:8px"/>
  </g>
  <circle cx="75.78" cy="85.002" r="52.148" style="fill:url(#_craftLinear82);stroke:#fff;stroke-width:2px;stroke-linecap:square"/>
  <path d="M70.633 109.499a36.16 36.16 0 0 1-6.145-1.225c-2.803-.819-5.146-1.845-7.032-3.076a1.487 1.487 0 0 1-.519-1.841c.61-1.366 1.654-3.682 2.352-5.23a1.49 1.49 0 0 1 2.143-.655c1.62.976 3.452 1.802 5.493 2.483a25.446 25.446 0 0 0 8.092 1.332c2.079 0 3.758-.206 5.037-.617 1.278-.412 2.22-.986 2.827-1.723.606-.736.91-1.581.91-2.534 0-1.214-.477-2.178-1.43-2.893-.953-.714-2.21-1.299-3.77-1.754a77.463 77.463 0 0 0-5.167-1.3 61.163 61.163 0 0 1-5.654-1.527c-1.885-.607-3.607-1.387-5.167-2.34a11.495 11.495 0 0 1-3.802-3.77c-.975-1.559-1.462-3.553-1.462-5.979 0-2.6.704-4.972 2.112-7.117 1.408-2.144 3.531-3.856 6.369-5.134 1.422-.64 3.026-1.12 4.813-1.44v-7.78c0-1.221.991-2.212 2.212-2.212h4.423c1.221 0 2.212.991 2.212 2.212v7.425c1.845.152 3.672.447 5.48.885 2.292.555 4.361 1.339 6.209 2.353.653.368.931 1.163.648 1.857-.565 1.402-1.513 3.733-2.137 5.27a1.49 1.49 0 0 1-2.059.767 26.605 26.605 0 0 0-4.935-1.928c-2.123-.585-4.203-.877-6.24-.877-2.036 0-3.704.238-5.004.715-1.3.476-2.231 1.094-2.795 1.852-.563.758-.844 1.636-.844 2.632 0 1.17.476 2.112 1.429 2.827.954.715 2.21 1.289 3.77 1.723 1.56.433 3.282.866 5.167 1.299 1.885.434 3.769.932 5.654 1.495 1.885.563 3.607 1.322 5.167 2.275 1.56.953 2.827 2.21 3.802 3.769.975 1.56 1.462 3.532 1.462 5.915 0 2.556-.715 4.896-2.144 7.019-1.43 2.123-3.564 3.834-6.402 5.134-1.782.816-3.857 1.376-6.228 1.68v7.73a2.213 2.213 0 0 1-2.212 2.212h-4.423a2.213 2.213 0 0 1-2.212-2.212v-7.697Z" style="fill:#1A8B85"/>
  <defs>
    <radialGradient id="_craftRadial81" cx="0" cy="0" r="1" gradientUnits="userSpaceOnUse" gradientTransform="matrix(-74.4339 0 0 -78.6155 76.133 90.61)"><stop offset="0" style="stop-color:#000000;stop-opacity:1"/><stop offset="1" style="stop-color:#396472;stop-opacity:0"/></radialGradient>
    <linearGradient id="_craftLinear82" x1="0" y1="0" x2="1" y2="0" gradientUnits="userSpaceOnUse" gradientTransform="rotate(90 24.027 58.038) scale(100.957)"><stop offset="0" style="stop-color:white;stop-opacity:1"/><stop offset="1" style="stop-color:#ABE4DE;stop-opacity:1"/></linearGradient>
  </defs>
  <style>
    #lines1,
    #lines2 {
      transform: translateY(0);
      transition: all 0.5s ease;
      transform-origin: center;
    }
    svg:hover #lines1 {
      transform: translateY(-5px); 
      transition: all 0.5s ease;
    }
    svg:hover #lines2 {
      transform: translateY(10px); 
      transition: all 0.5s ease;
    }
    </style>
</svg>

<?xml version="1.0" encoding="UTF-8" standalone="no"?>
<!DOCTYPE svg PUBLIC "-//W3C//DTD SVG 1.1//EN" "http://www.w3.org/Graphics/SVG/1.1/DTD/svg11.dtd">
<svg width="100%" height="100%" viewBox="0 0 148 139" version="1.1" xmlns="http://www.w3.org/2000/svg" xmlns:xlink="http://www.w3.org/1999/xlink" xml:space="preserve" xmlns:serif="http://www.serif.com/" style="fill-rule:evenodd;clip-rule:evenodd;stroke-linecap:round;stroke-linejoin:round;stroke-miterlimit:1.5;">
    <g transform="matrix(1,0,0,1,-1.707,0)">
        <g id="lines1">
            <path d="M15.707,84.014L15.707,92.492M35.707,28.486L35.707,57.777M55.707,14L55.707,29.619M75.707,34L75.707,49.619M95.707,34L95.707,53.643M115.707,27.229L115.707,51.707M135.707,36.156L135.707,46.842" style="fill:none;stroke:rgb(3,160,174);stroke-width:8px;"/>
        </g>
        <g id="lines2">
            <path d="M25.707,55.625L25.707,86.719M5.707,91.014L5.707,99.492M45.707,4L45.707,38.369M65.707,24L65.707,39.619M85.707,12.531L85.707,73.842M105.707,41L105.707,51.707M125.707,46.156L125.707,69.52M145.707,26.156L145.707,36.842" style="fill:none;stroke:rgb(3,160,174);stroke-width:8px;"/>
        </g>
        <circle cx="75.78" cy="85.002" r="52.148" style="fill:url(#_Linear1);stroke:url(#_Linear2);stroke-width:2px;stroke-linecap:square;"/>
        <path d="M70.633,109.499C68.553,109.269 66.497,108.859 64.488,108.274C61.685,107.455 59.342,106.429 57.456,105.198C56.861,104.793 56.641,104.013 56.937,103.357C57.547,101.991 58.591,99.675 59.289,98.127C59.529,97.593 60.062,97.249 60.648,97.249C60.925,97.249 61.196,97.326 61.432,97.472C63.052,98.448 64.884,99.274 66.925,99.955C69.533,100.834 72.265,101.283 75.017,101.287C77.096,101.287 78.775,101.081 80.054,100.67C81.332,100.258 82.274,99.684 82.881,98.947C83.487,98.211 83.791,97.366 83.791,96.413C83.791,95.199 83.314,94.235 82.361,93.52C81.408,92.806 80.151,92.221 78.591,91.766C76.884,91.274 75.161,90.84 73.424,90.466C71.516,90.048 69.629,89.538 67.77,88.939C65.885,88.332 64.163,87.552 62.603,86.599C61.057,85.659 59.754,84.367 58.801,82.829C57.826,81.27 57.339,79.276 57.339,76.85C57.339,74.25 58.043,71.878 59.451,69.733C60.859,67.589 62.982,65.877 65.82,64.599C67.242,63.959 68.846,63.479 70.633,63.159L70.633,55.379C70.633,54.158 71.624,53.167 72.845,53.167L77.268,53.167C78.489,53.167 79.48,54.158 79.48,55.379L79.48,62.804C81.325,62.956 83.152,63.251 84.96,63.689C87.252,64.244 89.321,65.028 91.169,66.042C91.822,66.41 92.1,67.205 91.817,67.899C91.252,69.301 90.304,71.632 89.68,73.169C89.453,73.73 88.905,74.099 88.299,74.099C88.063,74.099 87.831,74.043 87.621,73.936C86.044,73.131 84.391,72.485 82.686,72.008C80.563,71.423 78.483,71.131 76.446,71.131C74.41,71.131 72.742,71.369 71.442,71.846C70.142,72.322 69.211,72.94 68.647,73.698C68.084,74.456 67.803,75.334 67.803,76.33C67.803,77.5 68.279,78.442 69.232,79.157C70.186,79.872 71.442,80.446 73.002,80.88C74.562,81.313 76.284,81.746 78.169,82.179C80.054,82.613 81.938,83.111 83.823,83.674C85.708,84.237 87.43,84.996 88.99,85.949C90.55,86.902 91.817,88.159 92.792,89.718C93.767,91.278 94.254,93.25 94.254,95.633C94.254,98.189 93.539,100.529 92.11,102.652C90.68,104.775 88.546,106.486 85.708,107.786C83.926,108.602 81.851,109.162 79.48,109.466L79.48,117.196C79.479,118.409 78.481,119.407 77.268,119.408L72.845,119.408C71.632,119.407 70.634,118.409 70.633,117.196L70.633,109.499Z" style="fill:rgb(21,192,208);"/>
    </g>
    <defs>
        <linearGradient id="_Linear1" x1="0" y1="0" x2="1" y2="0" gradientUnits="userSpaceOnUse" gradientTransform="matrix(-3.86521e-14,100.957,-100.957,-3.86521e-14,82.065,34.011)"><stop offset="0" style="stop-color:rgb(16,59,91);stop-opacity:1"/><stop offset="1" style="stop-color:rgb(10,36,72);stop-opacity:1"/></linearGradient>
        <linearGradient id="_Linear2" x1="0" y1="0" x2="1" y2="0" gradientUnits="userSpaceOnUse" gradientTransform="matrix(104.296,0,0,104.296,23.632,85.002)"><stop offset="0" style="stop-color:rgb(47,204,220);stop-opacity:1"/><stop offset="1" style="stop-color:rgb(47,204,220);stop-opacity:1"/></linearGradient>
    </defs>
</svg>
